packages/gestalt/src/icons/android-share.svg

<svg xmlns="http://www.w3.org/2000/svg" width="24" height="24" viewBox="0 0 24 24"><path d="M19 16c-1.028 0-1.957.399-2.666 1.037L8.919 12.8c.053-.258.081-.526.081-.8s-.028-.542-.081-.8l7.415-4.237C17.043 7.601 17.972 8 19 8c2.209 0 4-1.791 4-4s-1.791-4-4-4-4 1.791-4 4c0 .274.028.542.081.8L7.666 9.037C6.957 8.399 6.028 8 5 8c-2.209 0-4 1.791-4 4s1.791 4 4 4c1.028 0 1.957-.399 2.666-1.037l7.415 4.237c-.053.258-.081.526-.081.8 0 2.209 1.791 4 4 4s4-1.791 4-4-1.791-4-4-4"/></svg>

<svg
    width="24"
    height="24"
    viewBox="0 0 24 24"
    version="1.1"
    xmlns="http://www.w3.org/2000/svg"
>
    <path
        d="M19,16 C17.972,16 17.043,16.399 16.334,17.037 L8.919,12.8 C8.972,12.542 9,12.274 9,12 C9,11.726 8.972,11.458 8.919,11.2 L16.334,6.963 C17.043,7.601 17.972,8 19,8 C21.209,8 23,6.209 23,4 C23,1.791 21.209,0 19,0 C16.791,0 15,1.791 15,4 C15,4.274 15.028,4.542 15.081,4.8 L7.666,9.037 C6.957,8.399 6.028,8 5,8 C2.791,8 1,9.791 1,12 C1,14.209 2.791,16 5,16 C6.028,16 6.957,15.601 7.666,14.963 L15.081,19.2 C15.028,19.458 15,19.726 15,20 C15,22.209 16.791,24 19,24 C21.209,24 23,22.209 23,20 C23,17.791 21.209,16 19,16"
        id="path-1"
    />
    <g stroke="none" strokeWidth="1" fill="none" fillRule="evenodd">
    <g transform="translate(-2066.000000, -2142.000000)">
        <g transform="translate(2065.000000, 2142.000000)">
        <use fill="8e8e8e" fillRule="evenodd" xlinkHref="#path-1" />
        </g>
    </g>
    </g>
</svg>
